X: 6030
T: Cap And Bells
R: reel
M: 4/4
K: Dmajor
|:dF (3FFF fdec|dfec dAFA|Be (3eee BAGB|gefd ecAc|
dF (3FFF fdec|dcAF ~G3E|FAde fdeg|1 fdec Addc:|2 fdec Adde||
|:faa^g afdf|b/b/f af gfed|Be (3eee gfed|ceb^g af=ge|
fa ~a2 fdde|fdec dcAF|~G3B efge|1 fdec Adde:|2 fdec Addc||

